X: 1
T: Hogmanay, The
M: 6/8
L: 1/8
R: jig
K: Dmaj
fgf fgf|e2d d2e|fgf fed|c2B B3|
cdc cdc|B2A A2^G|Ace a2a|1 g2f f2e:|2 d3 d2e||
|:f2f e2e|d2d c2c|B2B BAB|c3 Ace|
g2g f2f|e2e d2d|1 c2c BcB|A3 Ace:|2 c2A ABc|d3 d2e||
